icons/svg/weather-cloudy.svg

<svg width="24" height="24" viewBox="0 0 24 24" fill="none" xmlns="http://www.w3.org/2000/svg">
<path d="M3.46482 13.7963C3.0165 13.2141 2.75 12.4854 2.75 11.6946C2.75 9.90468 4.11535 8.4328 5.86396 8.25848C6.01943 8.24298 6.14034 8.10966 6.14034 7.95342C6.14034 6.04615 7.69054 4.5 9.60282 4.5C10.4821 4.5 11.2849 4.82692 11.8956 5.36555M16.5612 11.4494C16.5612 9.54209 15.011 7.99594 13.0988 7.99594C13.0886 7.99594 13.0785 7.99598 13.0684 7.99607C11.1701 8.01235 9.63628 9.5522 9.63628 11.4494C9.63628 11.6056 9.51537 11.7389 9.3599 11.7544C7.62515 11.9274 6.26762 13.3774 6.2462 15.148C6.24603 15.1622 6.24594 15.1764 6.24594 15.1906C6.24594 17.0978 7.79614 18.644 9.70842 18.644H17.7875C19.6998 18.644 21.25 17.0978 21.25 15.1906C21.25 13.2833 19.6998 11.7371 17.7875 11.7371H16.8375C16.6824 11.7371 16.5612 11.6045 16.5612 11.4494Z" stroke="currentColor" stroke-width="1.5" stroke-linecap="round" stroke-linejoin="round"/>
</svg>

<svg xmlns="http://www.w3.org/2000/svg" width="24" height="24" fill="none" viewBox="0 0 24 24"><path stroke="currentColor" stroke-linecap="round" stroke-linejoin="round" stroke-width="1.5" d="M3.465 13.796a3.43 3.43 0 0 1-.715-2.101 3.457 3.457 0 0 1 3.114-3.437.31.31 0 0 0 .276-.305A3.46 3.46 0 0 1 9.603 4.5c.88 0 1.682.327 2.293.866m4.665 6.083a3.46 3.46 0 0 0-3.493-3.453 3.46 3.46 0 0 0-3.432 3.453c0 .157-.12.29-.276.305a3.46 3.46 0 0 0-3.114 3.437 3.46 3.46 0 0 0 3.462 3.453h8.08a3.46 3.46 0 0 0 3.462-3.453 3.46 3.46 0 0 0-3.462-3.454h-.95a.283.283 0 0 1-.277-.288"/></svg>
